**kern	**kern	**kern	**kern
*staff3	*staff4	*staff1	*staff2
*clefF4	*clefF4	*clefG2	*clefG2
*k[f#c#]	*k[f#c#]	*k[f#c#]	*k[f#c#]
*M2/4	*M2/4	*M2/4	*M2/4
*D:	*D:	*D:	*D:
=-	=-	=-	=-
2r	[4f# [4a	[4ff# [4aa	2r
.	8.f#L] 8.a]	8.ff#L] 8.aa]	.
.	16e#Jk 16g#	16ee#Jk 16gg#	.
=153	=153	=153	=153
2r	(16eLL 16g	(16eeLL 16gg	2r
.	16d# 16f#	16dd# 16ff#	.
.	16d 16f	16dd 16ff	.
.	16c#JJ 16e	16cc#JJ 16ee	.
.	16cLL 16e-	16ccLL 16ee-	.
.	16B 16d	16b 16dd	.
.	16A# 16c#	16a# 16cc#	.
.	16AJJ) 16c	16aJJ) 16cc	.
*	*clefF4	*	*
=154	=154	=154	=154
2r	8G' 8B'	8g' 8b'	2r
.	8r	8r	.
.	8GG' 8BB' 8D' 8G'	8dd' 8gg' 8bb' 8ddd'	.
.	8r	8r	.
=155	=155	=155	=155
2r	8D' 8F#' 8A' 8d'	8a' 8dd' 8ff#' 8aa'	2r
.	8r	8r	.
.	4r	4r	.
=156	=156	=156	=156
2r	[4D [4F#	[4d [4f#	2r
.	16DLL] 16F#]	16dLL] 16f#]	.
.	(16E 16G	(16e 16g	.
.	16E# 16G#	16e# 16g#	.
.	16F#JJ 16A	16f#JJ 16a	.
=157	=157	=157	=157
2r	16GLL 16B-	16gLL 16b-	2r
.	16G# 16B	16g# 16b	.
.	16A 16c	16a 16cc	.
.	16A#JJ 16c#	16a#JJ 16cc#	.
.	16BLL 16d	16bLL 16dd	.
.	16c 16e-	16cc 16ee-	.
.	16c# 16e	16cc# 16ee	.
.	16dJJ) 16f	16ddJJ) 16ff	.
=158	=158	=158	=158
2r	8d' 8f#'	8dd' 8ff#'	2r
.	8r	8r	.
.	8DD' 8FF#' 8AA' 8D'	8a' 8dd' 8ff#' 8aa'	.
.	8r	8r	.
=159	=159	=159	=159
2r	8AA' 8C#' 8E' 8A'	8e' 8a' 8cc#' 8ee'	2r
.	8r	8r	.
.	4r	4r	.
=160:|!|:	=160:|!|:	=160:|!|:	=160:|!|:
*-	*-	*-	*-
